!!!OTL: Drei Koenige
!!!ARE: Europa, Mitteleuropa, Deutschland
!!!SCT: A0534
!!!YEM: Copyright 1995, estate of Helmut Schaffrath.
**kern
*ICvox
*Ivox
*M3/2
*k[f#]
*G:
{1dd
2dd
=1
1b
2cc
=2
1dd
2dd
=3
1.b}
=4
{1dd
2dd
=5
1b
2cc
=6
1dd
2dd
=7
1.b}
=8
{1b
2b
=9
1b
2a
=10
1b
2dd
=11
1.cc}
=12
{1b
2b
=13
1a
2g
=14
1a
2a
=15
1.g}
==
!!!AGN: Romanze, Ballade, Lied, religioeses Lied
!! Andernacher Gsgb. 1608 S. 135.
!!!ONB: ESAC (Essen Associative Code) Database: ALTDEU
!!!AMT: simple triple
!!!AIN: vox
!!!EED: Helmut Schaffrath
!!!EEV: 1.0
*-
